X:82
T: NUN GEBT UNS AUCH EIN PEUST EI
N: K1648
O: Europa, Mitteleuropa, Deutschland, Koeln
R: Kinder -, Ansinge - Lied, Bettel - Reim
M: 2/4
L: 1/8
K: D
A, | DEFG | A2Az |
d2cB | BAA
A | dAGF | EFGz |
G2FE | FGAz |
BGEC | EDD

